**kern	**kern
*part1	*part1
*staff2	*staff1
*I"Piano	*
*clefF4	*clefG2
*k[f#c#g#d#]	*k[f#c#g#d#]
=1	=1
*^	*
2BB]	2.BBB	(4e 4g#
.	.	8d#L 8f#
.	.	8A 8c#
[4BB	.	8.d#) 8.f#
.	.	16aJk 16cc#
=	=	=
2BB]	2.EE	4a 4cc#
.	.	(8g#L 8b
.	.	8e 8g#
[4BB	.	8G#) 8e
.	.	8eJ 8g#
=	=	=
2BB]	2.BBB	(4e 4g#
.	.	8d#L 8f#
.	.	8A 8c#
[4BB	.	8.d#) 8.f#
.	.	16AJk 16c#
=	=	=
2BB]	2.EE	4A 4c#
.	.	(8G#L 8B
.	.	8G# 8e
[4BB	.	8B 8f#
.	.	8eJ) 8g#
=	=	=
2BB]	2.BBB	(4e 4g#
.	.	8d#L 8f#
.	.	8A 8c#
[4BB	.	8.d#) 8.f#
.	.	([16aJk [16cc#
=	=	=
2BB]	2.EE	4a] 4cc#]
!	!	!LO:TX:a:i:t=ritard.
.	.	8g#L 8b
.	.	8e 8g#
([4c#	.	8G# 8e
.	.	8BJ 8f#
=	=	=
*	*^	*
4c#]	4ryy	2ryy	[2.e) [2.g#
2B	8BL	.	.
.	8G#	.	.
.	[8E	4E/	.
.	8F#J	.	.
*v	*v	*v	*
=	=
2.E;]) 2.G# 2.B	2.e;] 2.g#]
==	==
*-	*-
!!!system-decoration: {(s1,s2)}
